src/images/logos/twitter.svg

<svg width="20" height="20" viewBox="0 0 20 20" fill="none" xmlns="http://www.w3.org/2000/svg">
<path d="M18.3333 4.95699C17.7093 5.22792 17.0473 5.40575 16.3694 5.48458C17.0754 5.06991 17.6176 4.41326 17.8728 3.63087C17.2017 4.02116 16.4673 4.29614 15.7016 4.44394C15.0778 3.79277 14.1892 3.38583 13.2057 3.38583C11.3173 3.38583 9.78617 4.88605 9.78617 6.73638C9.78617 6.99903 9.8165 7.25472 9.87475 7.50002C7.03295 7.36024 4.51341 6.02633 2.8269 3.99916C2.53262 4.49402 2.36401 5.06965 2.36401 5.68362C2.36401 6.84611 2.96771 7.87162 3.88516 8.4725C3.34216 8.45583 2.8111 8.31214 2.33633 8.05338C2.33614 8.06742 2.33614 8.08145 2.33614 8.09555C2.33614 9.719 3.51478 11.0732 5.07898 11.381C4.57545 11.5152 4.04729 11.5348 3.53484 11.4384C3.96993 12.7696 5.23275 13.7383 6.72898 13.7654C5.55873 14.664 4.08431 15.1997 2.48236 15.1997C2.20632 15.1997 1.93419 15.1838 1.66667 15.1529C3.17989 16.1036 4.97722 16.6583 6.9082 16.6583C13.1978 16.6583 16.637 11.5527 16.637 7.12496C16.637 6.97963 16.6338 6.83514 16.6271 6.69147C17.2965 6.21727 17.8743 5.62992 18.3333 4.95699Z" fill="currentColor"/>
</svg>

<svg xmlns="http://www.w3.org/2000/svg" fill="none" viewBox="1.67 3.39 16.67 13.27"><path fill="currentColor" d="M18.33 4.96c-.62.27-1.28.45-1.96.52a3.37 3.37 0 0 0 1.5-1.85c-.67.4-1.4.67-2.17.81a3.45 3.45 0 0 0-5.91 2.3c0 .26.03.51.08.76A9.78 9.78 0 0 1 2.83 4c-.3.5-.47 1.07-.47 1.68 0 1.17.6 2.2 1.53 2.8a3.46 3.46 0 0 1-1.55-.43v.05a3.37 3.37 0 0 0 2.74 3.28 3.5 3.5 0 0 1-1.55.06 3.41 3.41 0 0 0 3.2 2.33 6.95 6.95 0 0 1-5.06 1.38 9.82 9.82 0 0 0 5.24 1.5 9.56 9.56 0 0 0 9.72-9.96 6.87 6.87 0 0 0 1.7-1.73Z"/></svg>
